X: 1
T:Peace I give you
C:anon.
O:Russia
Z:Transcribed by Frank Nordberg - http://www.musicaviva.com
M:2/4
L:1/4
K:Em
"Em"EG|"B7"FB,|"Em"EG|"B7"FB,|
w:
w:Peace I give you,Peace I leave you,
"Em"GG|"D"A(d/c/)|"G"B2-|"B7"B z|
w:
w:Peace when Heav-en's won.
"Em"BB|"B7"A(B/A/)|"Em"GG|"B7"FB,|
w:
w:World-ly peace is[ext] ev-er pass-ing;
"Em"(E/F/) (G/A/)|"B7"B>^D|"Em"E2-|"Em"E z|]
w:
w:Trust[ext] in[ext] God's own Son.
W:
W:Yet good Savior, we must beg you,
W:Keep our land from war.
W:Guard our men who go in battle
W:On a foreign shore.
W:
W:On the oceans, in the heavens,
W:Through the tropic heat,
W:Lead our brothers, sons and fathers;
W:Hate and fear defeat!
W:
W:Beat the sword into the plowshare;
W:Let contention cease!
W:Love your brothers; serve them gladly,
W:Seek the ways of peace
